X:18750
T:Why should I not like my Love
M:9/8
K:Am
E|\
ABA c2A cde| G2G Gge dBG| ABA c2A cde| ede gdB A2G|
ABA c2A cde| GAG Gge dBG| ABA c2A cde| ede gdB G2||
g|\
ede ede g2g| dBd dBd f2d| eag edB deg| ede gdB A2:|


